X: 38024
T: Spey In Spate, The
R: reel
M: 4/4
K: Dmajor
|:D2FD A,DFA|dcBA ^GAFD|E2GE B,EGB|edcB AGFE|
D2FD A,DFA|dDcD BDAf|gefd AcdB|1 AFGE FDDE:|2 AFGE FDFA||
|:d2 fd AdFA|DFAd fagf|e2 ge BAED|CEAc egfe|
d2 cd AdFA|DFAd fagf|gefd ecdB|1 AFGE FDFA:|2 AFGE FDDE||

